assets/illustrations/adobe-indesign-logo.svg

<svg width="50" height="51" viewBox="0 0 50 51" fill="none" xmlns="http://www.w3.org/2000/svg">
<path d="M8.85417 0.200195H41.1458C46.0417 0.200195 50 4.26002 50 9.28139V41.119C50 46.1404 46.0417 50.2002 41.1458 50.2002H8.85417C3.95833 50.2002 0 46.1404 0 41.119V9.28139C0 4.26002 3.95833 0.200195 8.85417 0.200195Z" fill="#49021F"/>
<path d="M18.1666 13.2776V35.2007C18.1666 35.4357 18.0624 35.5426 17.8749 35.5426H13.7916C13.6041 35.5426 13.5208 35.4357 13.5208 35.2007V13.2776C13.5208 13.0853 13.6249 12.9998 13.8124 12.9998H17.8749C17.9999 12.9785 18.1249 13.0639 18.1458 13.2135C18.1666 13.2349 18.1666 13.2562 18.1666 13.2776Z" fill="#FF3366"/>
<path d="M30.1666 35.8842C28.625 35.9056 27.0833 35.5851 25.6875 34.9227C24.375 34.303 23.2916 33.2774 22.5416 32.0167C21.7708 30.7133 21.3958 29.0894 21.3958 27.1449C21.375 25.5637 21.7708 24.0039 22.5416 22.6364C23.3333 21.2475 24.4791 20.0936 25.8541 19.3244C27.3125 18.4911 29.0625 18.0851 31.125 18.0851C31.2291 18.0851 31.375 18.0851 31.5625 18.1065C31.75 18.1278 31.9583 18.1278 32.2083 18.1492V11.3971C32.2083 11.2475 32.2708 11.162 32.4166 11.162H36.6458C36.75 11.1406 36.8333 11.2261 36.8541 11.3116C36.8541 11.333 36.8541 11.3543 36.8541 11.3543V31.6962C36.8541 32.0808 36.875 32.5082 36.8958 32.9783C36.9375 33.427 36.9583 33.8543 36.9791 34.2176C36.9791 34.3671 36.9166 34.4953 36.7708 34.5595C35.6875 35.0295 34.5416 35.3714 33.375 35.5851C32.3333 35.7774 31.25 35.8842 30.1666 35.8842ZM32.2083 31.6107V22.209C32.0208 22.1663 31.8333 22.1236 31.6458 22.1022C31.4166 22.0808 31.1875 22.0594 30.9583 22.0594C30.1458 22.0594 29.3333 22.2304 28.6041 22.615C27.8958 22.9783 27.2916 23.5124 26.8333 24.1962C26.375 24.88 26.1458 25.7988 26.1458 26.9099C26.125 27.6577 26.25 28.4056 26.5 29.1107C26.7083 29.6877 27.0208 30.2005 27.4375 30.6278C27.8333 31.0124 28.3125 31.3116 28.8541 31.4825C29.4166 31.6748 30 31.7603 30.5833 31.7603C30.8958 31.7603 31.1875 31.7389 31.4583 31.7176C31.7291 31.7389 31.9791 31.6962 32.2083 31.6107Z" fill="#FF3366"/>
</svg>

<svg width="50" height="51" fill="none" xmlns="http://www.w3.org/2000/svg"><path d="M8.854.2h32.292C46.042.2 50 4.26 50 9.281V41.12c0 5.021-3.958 9.081-8.854 9.081H8.854C3.958 50.2 0 46.14 0 41.12V9.281C0 4.26 3.958.201 8.854.201Z" fill="#49021F"/><path d="M18.167 13.278V35.2c0 .235-.105.342-.292.342h-4.083c-.188 0-.271-.107-.271-.342V13.278c0-.193.104-.278.291-.278h4.063c.125-.021.25.064.27.213.022.022.022.043.022.065Zm12 22.606a10.137 10.137 0 0 1-4.48-.961c-1.312-.62-2.395-1.646-3.145-2.906-.771-1.304-1.146-2.928-1.146-4.872a8.952 8.952 0 0 1 1.146-4.509 8.757 8.757 0 0 1 3.312-3.312c1.459-.833 3.209-1.239 5.271-1.239.104 0 .25 0 .438.021.187.022.395.022.645.043v-6.752c0-.15.063-.235.209-.235h4.229c.104-.021.187.064.208.15v20.384c0 .385.021.812.042 1.282.041.449.062.876.083 1.24 0 .15-.062.277-.208.341-1.084.47-2.23.812-3.396 1.026-1.042.192-2.125.3-3.208.3Zm2.041-4.273v-9.402a5.292 5.292 0 0 0-.562-.107c-.23-.021-.459-.043-.688-.043-.812 0-1.625.171-2.354.556a4.708 4.708 0 0 0-1.77 1.581c-.459.684-.688 1.603-.688 2.714a6.08 6.08 0 0 0 .354 2.2c.208.578.52 1.09.938 1.518a3.58 3.58 0 0 0 1.416.855 5.33 5.33 0 0 0 1.73.277c.312 0 .604-.021.874-.042.271.02.521-.022.75-.107Z" fill="#F36"/></svg>
